lib/preview/nrk-logo-preview-nrk-p3-x.svg

<svg width="74" height="14" viewBox="0 0 74 14" fill="none" xmlns="http://www.w3.org/2000/svg">
<path d="M73.1429 13.0018L69.0002 6.74239L72.785 1.00183H70.8916L68.1419 5.5714L65.1256 1.00183H63.0449L66.932 6.82577L62.8572 13.0015H64.7847L67.8184 8.06972L71.079 13.0015L73.1429 13.0018Z" fill="white"/>
<path d="M46.3332 1.00684H42.632C42.632 1.00684 44.7352 4.45939 44.7589 4.50285C44.8381 4.60269 44.8824 4.72581 44.8849 4.85326C44.8874 4.98071 44.848 5.10545 44.7727 5.20832L42.632 8.71732H46.3338C46.3338 8.71732 48.1189 5.79838 48.3629 5.39316C48.4788 5.23792 48.5405 5.049 48.5387 4.85533C48.5369 4.66166 48.4717 4.47391 48.3531 4.32083C48.0898 3.87244 48.0892 3.87273 46.3332 1.00684Z" fill="white"/>
<path d="M42.1537 1.00688H38.8572V13.0001H42.1537V1.00688Z" fill="white"/>
<path d="M57.9266 2.99372C57.8021 2.78152 56.7005 1.00684 56.7005 1.00684H48.7778L50.5084 3.9097H54.6814L52.9601 6.73157L54.879 9.95556L53.027 12.9992H56.4093C56.953 12.1098 57.766 10.7338 57.9359 10.4519C58.0524 10.2961 58.1145 10.1064 58.1127 9.91185C58.1109 9.71731 58.0454 9.52874 57.926 9.3751C57.7567 9.08614 56.8509 7.64953 56.3096 6.76516C56.3096 6.76516 57.766 4.35188 57.9359 4.06998C58.0523 3.91428 58.1145 3.72469 58.1128 3.53028C58.1111 3.33587 58.0457 3.14738 57.9266 2.99372Z" fill="white"/>
<path d="M50.3058 7.12128C49.7843 7.97292 48.9124 9.40023 48.749 9.67846C48.634 9.82645 48.5708 10.0081 48.5691 10.1955C48.5673 10.3829 48.6272 10.5657 48.7394 10.7158C48.9031 10.9872 49.7818 12.4258 50.3058 13.2837C50.8296 12.4267 51.7086 10.9881 51.872 10.7158C51.9842 10.5657 52.044 10.3829 52.0423 10.1955C52.0406 10.0082 51.9775 9.82652 51.8627 9.67846C51.6993 9.40023 50.827 7.97292 50.3058 7.12128Z" fill="white"/>
<path d="M6.10352e-05 13.0018V1.00292H3.93725V13.0018H6.10352e-05ZM9.29387 2.91261L11.5581 13.0018H7.24923L4.54555 1.00292H6.96224C7.51641 0.995729 8.05412 1.19108 8.47456 1.55222C8.89568 1.89821 9.18501 2.37853 9.29387 2.91261ZM12.1496 13.0018V1.00292H16.0868V13.0018H12.1496ZM19.0605 5.56593C18.6363 5.57007 18.2188 5.45906 17.8526 5.2448C17.4913 5.03595 17.1912 4.73579 16.9823 4.37443C16.7678 4.00816 16.6568 3.59059 16.661 3.16615C16.6562 2.74429 16.7673 2.32921 16.9823 1.96626C17.1934 1.60882 17.4932 1.31192 17.8526 1.10435C18.2189 0.890333 18.6363 0.779346 19.0605 0.783215C19.4823 0.778673 19.8972 0.88976 20.2603 1.10435C20.6161 1.31374 20.9127 1.61039 21.1221 1.96626C21.3369 2.32931 21.448 2.74432 21.4434 3.16615C21.4473 3.59056 21.3363 4.00806 21.1221 4.37443C20.9149 4.73421 20.618 5.03411 20.2603 5.2448C19.8972 5.45981 19.4819 5.57092 19.06 5.56593H19.0605ZM22.0517 13.0018V1.00292H25.9892V13.0018H22.0517ZM30.9738 7.56006C30.9849 7.57171 31.0693 7.70971 31.2272 7.9741C31.3851 8.23849 31.5907 8.57652 31.844 8.98812C32.0975 9.39954 32.3649 9.83609 32.6464 10.2978C32.9278 10.7596 33.1927 11.1962 33.4409 11.6076C33.6882 12.019 33.9698 12.4838 34.2858 13.0018H29.9599C29.6893 12.5624 29.4442 12.1653 29.2245 11.8104C29.0049 11.4555 28.7714 11.0724 28.5239 10.6612C28.2759 10.2503 28.0307 9.85037 27.7883 9.4613C27.5459 9.07222 27.3376 8.73144 27.1633 8.43889C26.9883 8.14615 26.8671 7.94895 26.7997 7.84737C26.6326 7.59528 26.5337 7.30413 26.5127 7.00238C26.5295 6.71277 26.6227 6.43281 26.7828 6.19094C26.8504 6.07828 26.9743 5.87826 27.1546 5.59096C27.3348 5.30366 27.5461 4.96288 27.7883 4.56855C28.0305 4.17423 28.2757 3.77144 28.5239 3.36021C28.7721 2.94898 29.0056 2.56307 29.2245 2.20254C29.4446 1.84238 29.6897 1.44242 29.9599 1.00265H34.2858L30.9397 6.46133C30.8361 6.6234 30.7778 6.81018 30.7707 7.00238C30.7818 7.20415 30.8523 7.39815 30.9732 7.56006H30.9738Z" fill="white"/>
</svg>

<svg xmlns="http://www.w3.org/2000/svg" viewBox="0 0 74 14"><path fill="#fff" d="M73.143 13.002 69 6.742l3.785-5.74h-1.893l-2.75 4.57-3.016-4.57h-2.081l3.887 5.824-4.075 6.176h1.928l3.033-4.932L71.08 13h2.064ZM46.333 1.007h-3.701s2.103 3.452 2.127 3.496a.582.582 0 0 1 .014.705l-2.141 3.51h3.702s1.785-2.92 2.029-3.325a.885.885 0 0 0-.01-1.072c-.263-.449-.264-.448-2.02-3.314ZM42.154 1.007h-3.297V13h3.297V1.007ZM57.927 2.994A329.052 329.052 0 0 0 56.7 1.007h-7.922l1.73 2.903h4.173l-1.72 2.822 1.918 3.224-1.852 3.043h3.382c.544-.89 1.357-2.265 1.527-2.547a.888.888 0 0 0-.01-1.077c-.17-.289-1.075-1.725-1.616-2.61l1.626-2.695a.888.888 0 0 0-.01-1.076Z"/><path fill="#fff" d="M50.306 7.121a377.05 377.05 0 0 0-1.557 2.557.855.855 0 0 0-.01 1.038c.164.271 1.043 1.71 1.567 2.568a906.39 906.39 0 0 0 1.566-2.568.856.856 0 0 0-.01-1.038 391.068 391.068 0 0 0-1.556-2.557ZM0 13.002v-12h3.937v12H0Zm9.294-10.09 2.264 10.09H7.25l-2.703-12h2.416a2.276 2.276 0 0 1 1.513.55c.42.346.71.827.819 1.36Zm2.856 10.09v-12h3.937v12H12.15Zm6.91-7.436a2.383 2.383 0 0 1-2.4-2.4 2.303 2.303 0 0 1 .322-1.2 2.411 2.411 0 0 1 3.278-.862c.356.21.653.506.862.862.215.363.326.778.321 1.2a2.4 2.4 0 0 1-1.183 2.079 2.303 2.303 0 0 1-1.2.32Zm2.992 7.436v-12h3.937v12h-3.937Zm8.922-5.442c.01.012.095.15.253.414s.364.603.617 1.014a327.805 327.805 0 0 1 1.597 2.62c.247.411.529.876.845 1.394H29.96c-.27-.44-.516-.837-.736-1.192-.22-.354-.453-.738-.7-1.149a99.5 99.5 0 0 0-.736-1.2c-.242-.389-.45-.73-.625-1.022a17.98 17.98 0 0 0-.363-.592 1.75 1.75 0 0 1-.287-.845c.016-.29.11-.57.27-.811.067-.113.191-.313.372-.6a181.843 181.843 0 0 0 1.37-2.23c.247-.412.48-.798.7-1.158l.735-1.2h4.326L30.94 6.46a1.078 1.078 0 0 0-.17.541c.012.202.082.396.203.558Z"/></svg>
